X: 1823
T: Sir Patrick Bellew's March   #2
R: jig, march
%S: s:2 b:12(6+6)
B: O'Neill's 1850 #1823
Z: Transcribed by Bob Safranek, rjs@gsp.org
Z: Compacted via repeats and multiple endings [JC]
M: 6/8
L: 1/8
K: G
|: d2{e}d B2G | d2d BAG | d2d gdB | A2G [1,3 ABc :| [2,4 ABG :: G>AG g2d | ece d2c |
| Bcd ecA | G2(A/G/) FED || G>AG gd=f | ece d2c | Bcd ded | e2B ABG :|
